X: 1
T: Muirland Willie
R: jig
Z: 1997 by John Chambers <jc:trillian.mit.edu>
M: 6/8
L: 1/8
K: Gm
|: D \
| "Gm"G2A "Eb"B2c | "Bb"d>ed f3 | "F"cAc "Bb"f2d | "Gm"dcB "D7"AG^F \
| "Gm"G2A "Eb"B2c | "Bb"d>ed "(Eb)"b2b | "F"a>ga "D7"d<g^f | "G"g3 G2 :|
|: d \
| "Eb"g2a "Bb"b2b |  "C7"d2=e "F"f3 | "F7"cAc "Bb"f2d | "Gm"dcB "D7"AG^F \
| "Gm"G2A "Eb"B2c | "Bb"d>ed "(Eb)"b2b | "F"a>ga "D7"d<g^f | "G"g3 G2 :|
